X:1
T:Anglais efter Per Nilsson Dahlberg
T:(SvL Skne nr. 185)
S:efter Per Nilsson Dahlberg
S:Svenska Ltar
R:Anglais
Z:Patrik Mnsson, 2009-01-03
O:Nym, Skne
M:2/4
L:1/16
K:F
(Ac)dc (Ac)fa | gbeg afcB | (Ac)dc (Ac)fa | (gb)eg f2 z2 |
K:Bb
|:!>!d4 (Bd)FB | cecA Bdfe | !>!d4 (Bd)FB | (ce)cA B2 z2 :|
